X: 202
T:Chloe's Passion
C:composed by Dr. Angus MacDonald
M:9/8
F:http://blackrosetheband.googlepages.com/ABCTUNES.ABC May 2009
R:Slip Jig
S:Angus Sessions Podcast
K:Em
|:Bde gaf gee|Bde gee fdd|Bde gaf gee|fdd agf gee:||
|:ABB gfe gaa|ABB gfe fdd|ABB gfe gaa|fdd agf gee:||
|:B2B GzB AAA|BBB GBe Beg|fde faf gee|fdd agf gee:||
fge edB ege|fdd dBA ABB|fge edB ege|fdd agf gee|
fge edB ege|fdd dBA ABB|ggg fga gee|ABd fBA B3||

